X:1
T: Molly's Night Cap
C:
R:Reel
Q: 232
K:D
M:4/4
L:1/8
|:gf|e2 cA e2 cA|((3Bcd) ef g2 ge|d2 BG dG BG|((3Bcd) ef g2 gf|
e2 cA e2 cA|((3Bcd) ef g2 ge|af ge df ec|A2 A2 A2 fg|
a2 ab ag ed|((3Bcd) ef g2 ge|d2 BG dG BG|((3Bcd) ef g2 gf|
a2 ab ag ed|((3Bcd) ef g2 ge|af ge df ec|A2 A2 A2:|
